X:1
T:Title
%%score ( 1 2 ) 3
L:1/8
M:6/8
K:Ab
V:1 treble nm="Choir Aahs, Unnamed-000"
V:2 treble 
V:3 bass nm="Choir Aahs, Unnamed-001"
V:1
 [CE][CF][CG] [CA]2 [DB] | [Ec]2 [CA] [CE]3 | E3 [=DF]2 [FA] | [EG]6 | [DE][DG][CA] [EB]2 [Ec] | %5
w: By~Henry~Dixon~Loes,~1921 * * * *|||||
 [Ed]2 [DB] [DG]3 | [DF]3 [DE]2 [Fd] | [Ec]6 | [CE][CF][CG] [CA]2 [DB] | [Ec]2 [CA] [CE]3 | %10
w: |||||
 [DF]3 [FB]2 [Fc] | [Fd]6 | [Gd][Gd][Fd] [Ec]2 [EB] | [Ee]2 [Ec] [CA]3 | [Ec]3 [DB]2 [DB] | [CA]6 | %16
w: ||||||
 [Ec]3 [CA]2 [DF] | [CE]3- [CE][A,C][B,D] | z3 A3 | [DG]6 | [Ed]3 [DB]2 [DG] | %21
w: |||||
 [DE]3- [DE]/ z/ [DF][DG] | [CA]3 [EB]3 | [Ec]6 | [Ec]3 [CA]2 [DF] | [CE]3- [CE]/ z/ [A,C][B,D] | %26
w: |||||
 z3 A3 | [DF]6 | [DF]3 [FA]2 [=Ed] | [Ec]3 [_Ge]3 | [Fe]2 [=Ed] [_Ec]2 [DB] | [CA]6 |] %32
w: ||||||
V:2
 x6 | x6 | x6 | x6 | x6 | x6 | x6 | x6 | x6 | x6 | x6 | x6 | x6 | x6 | x6 | x6 | x6 | x6 | %18
 [CE]3 C2 E | x6 | x6 | x6 | x6 | x6 | x6 | x6 | [CE]3 C2 E | x6 | x6 | x6 | x6 | x6 |] %32
V:3
 [A,,A,][A,,A,][A,,A,] [A,,E,]2 [A,,E,] | [A,,A,]2 [A,,A,] [A,,A,]3 | [C,A,]3 [B,,A,]2 [=D,B,] | %3
 [E,B,]6 | [E,G,][E,B,][E,A,] [E,G,]2 [E,A,] | [E,B,]2 [E,G,] [E,B,]3 | [E,A,]3 [E,G,]2 [E,G,] | %7
 [A,,A,]6 | [A,,A,][A,,A,][A,,A,] [A,,E,]2 [A,,E,] | [A,,A,]2 [A,,A,] [A,,A,]3 | %10
 [D,A,]3 [D,A,]2 [C,=A,] | [B,,B,]6 | [E,B,][E,B,][E,A,] [E,G,]2 [D,G,] | [C,A,]2 [C,A,] [F,A,]3 | %14
 [E,A,]3 [E,G,]2 E, | [A,,E,]6 | [A,,A,]3 [A,,E,]2 [A,,F,] | %17
 [A,,A,]2 [A,,A,] [A,,A,][A,,E,][A,,E,] | [A,,A,]3 [A,,E,]2 [C,A,] | [E,B,]2 [E,B,] [E,B,]3 | %20
 [E,B,]3 [E,G,]2 [E,B,] | [E,G,]2 [E,G,] [E,G,][E,A,][E,B,] | [F,A,]3 [E,G,]2 [E,G,] | A,2 A, A,3 | %24
 [A,,A,]3 [A,,E,]2 [A,,F,] | [A,,A,]2 [A,,A,] [A,,A,][A,,E,][A,,E,] | [A,,A,]3 [A,,E,]2 [C,A,] | %27
 [D,A,]2 [D,A,] [D,A,]3 | [D,A,]3 [D,A,]2 [D,A,] | [A,,A,]3 [C,A,]3 | [D,A,]2 [D,A,] [E,A,]2 E, | %31
 [A,,E,]6 |] %32

